X:22
T: Trau di, liebe Margaret, wie oft hab ich dei Wiesla gmaeht
N: V0005
O: Europa, Mitteleuropa, Deutschland, Ober - Franken, Koednitz
R: Liebes - Lied, Leid
M: 2/4
L: 1/16
K: C
 |  |  | G3cB2A2 | G3GE2
E2 | G2F2F2F2 | A2G2G2
G2 | G2c2B2A2 | G3GE2
E2 | G2G2G2F2 | E4z4

@@@ Tune index: 9751
